app/dist/common/images/universal-technical-institute.svg

<svg height="18" viewBox="0 0 18 18" width="18" xmlns="http://www.w3.org/2000/svg" xmlns:xlink="http://www.w3.org/1999/xlink"><linearGradient id="a" gradientUnits="userSpaceOnUse" x1="3.35" x2="21.9" y1="3.12" y2="24.43"><stop offset="0" stop-color="#1a1e21"/><stop offset="1" stop-color="#06060a"/></linearGradient><path d="m0 0h18v18h-18z" fill="url(#a)"/><path d="m14 4h-8.01l-1.39 6.04a4.01 4.01 0 0 0 3.84 4.96 3.96 3.96 0 0 0 3.84-3.15z" fill="#fbfcfe"/><path d="m13.1 5h-6.6l-.2 1h2.6l-1.2 5.39c-.1.46.24.82.7.82.33 0 .61-.17.69-.5l1.24-5.71h2.57z"/><path d="m8.5 6.45h-2.22c-.1.4-.45 1.89-.91 4.02-.58 2.67 2.06 3.74 2.92 3.74.48 0 .86-.07 1-.11a2.2 2.2 0 0 1 -1.94-2.42z" fill="#008fd5"/><path d="m12.71 6.45h-2.14c-.29 1.3-.93 4.35-1.18 5.43-.24 1.07-1.35.83-1.63.44 0 .23.52 1.43 1.7 1.43 1.34 0 1.96-1.25 2.1-1.83z" fill="#ed1b24"/></svg>

<!-- by TradingView --><svg xmlns="http://www.w3.org/2000/svg" width="18" height="18" viewBox="0 0 18 18"><path fill="url(#aidk5fyo2)" d="M0 0h18v18H0z"/><path d="M14 4H5.99L4.6 10.04A4.01 4.01 0 0 0 8.44 15a3.96 3.96 0 0 0 3.84-3.15L14 4z" fill="#FBFCFE"/><path d="M13.1 5H6.5l-.2 1H8.9L7.7 11.39c-.1.46.24.82.7.82.33 0 .61-.17.69-.5L10.33 6h2.57l.2-1z"/><path d="M8.5 6.45H6.28c-.1.4-.45 1.89-.91 4.02-.58 2.67 2.06 3.74 2.92 3.74.48 0 .86-.07 1-.11a2.2 2.2 0 0 1-1.94-2.42L8.5 6.45z" fill="#008FD5"/><path d="M12.71 6.45h-2.14c-.29 1.3-.93 4.35-1.18 5.43-.24 1.07-1.35.83-1.63.44 0 .23.52 1.43 1.7 1.43 1.34 0 1.96-1.25 2.1-1.83l1.15-5.47z" fill="#ED1B24"/><defs><linearGradient id="aidk5fyo2" x1="3.35" y1="3.12" x2="21.9" y2="24.43" gradientUnits="userSpaceOnUse"><stop stop-color="#1A1E21"/><stop offset="1" stop-color="#06060A"/></linearGradient></defs></svg>
